X: 1527
T: Nâr-ı Firkat Şûle-pâş Oldukça
C: Mahmud Celâleddin Paşa
O: Turkey
F: http://compmusic.upf.edu/node/140
N: beyati--sarki--devrihindi--nar-i_firkat--mahmud_celaleddin_pasa
N: makam= beyati
N: form= sarki
N: usul= devrihindi = 7/4
M: 7/4
L: 1/16
K: C _2/4B   
Q: 1/4=102
%%MIDI tuningsystem comma53
e2^3/4f2 e2f2 e2d2 a2g2 f2e2 d8  | \
w:  ARANAĞME  | 
c2d2 e2^3/4f2 g2f2 e3d c2d2 c4 B4  | 
w:   | 
^3/4f4 g4 a2_b2 a2g2 f2_3/4e2 d2c2 _1/4B2A2  | \
w:   | 
B4 A4 B2d2 c2B2 B2A2 A8  | 
w:   | 
e2^3/4f2 e2f2 e2d2 a2g2 f2e2 d8  | \
w:  ARANAĞME  | 
c2d2 e2^3/4f2 g2f2 e3d c2d2 c4 B4  | 
w:   | 
^3/4f4 g4 a2_b2 a2g2 f2_3/4e2 d2c2 _1/4B2A2  | \
w:   | 
B4 A4 B2d2 c2B2 B2A2 A8  | 
w:   | 
d8 e4 d3c B2c2 d8  | e2f2 e2g2 f2e2 e3d c2e2 d8  | \
w:  Nar_ ı  fir *  *  *  kat   |  şû *  *  *  le  *  pâş  *  *  *  ol  | 
d2e2 d4 e4 d4 c2B2 ^3/4f4 g4  | 
w:  duk *  *  ça  sî *  *  nem   | 
g^3/4fga f3d e2{=f}ed d6e2 c2B2 A4  | \
w:  dağ *  *  *  *  *  lı *  *  *  yor   SAZ  | 
d8 e4 d3c B2c2 d8  | 
w:  Nar_ ı  fir *  *  *  kat   | 
e2f2 e2g2 f2e2 e3d c2e2 d8  | d2e2 d4 e4 d4 c2B2 ^3/4f4 g4  | \
w:  şû *  *  *  le  *  pâş  *  *  *  ol  |  duk *  *  ça  sî *  *  nem   | 
g^3/4fga f3d e2{=f}ed d6ag gffe f4  | 
w:  dağ *  *  *  *  *  lı *  *  *  yor   SAZ  | 
f8 f2e2 f3e ^2/4f2g2 a2{_b}ag =fed2  | \
w:  Çağ lı *  yor  *  *  *  sel  | 
a2g2 f2e2 e2d2 d3c B2d2 c2d2 c2BA  | 
w:  ler  *  *  *  gi *  bi  *  *  *  eş  | 
G2A2 B2c2 d2e2 d2{f}ed c2B2 c2d2 (3e2f2g2  | \
w:  ki  *  *  *  dü  *  çeş *  *  *  *  *  mim   | 
f2ed c3B _3/4B2BA A6ag gffe f4  | 
w:  çağ *  *  *  *  lı *  *  yor   SAZ  | 
f8 f2e2 f3e ^2/4f2g2 a2{_b}ag =fed2  | \
w:  Çağ lı *  yor  *  *  *  sel  | 
a2g2 f2e2 e2d2 d3c B2d2 c2d2 c2BA  | 
w:  ler  *  *  *  gi *  bi  *  *  *  eş  | 
G2A2 B2c2 d2e2 d2{f}ed c2B2 c2d2 (3e2f2g2  | \
w:  ki  *  *  *  dü  *  çeş *  *  *  *  *  mim   | 
f2ed c3B _3/4B2BA A6ab ag^3/4fg a4  | 
w:  çağ *  *  *  *  lı *  *  yor   SAZ  | 
g8 a4 a2c'2 b2a2 {b}a8  | c'2_7/8b2 a2g2 g2^3/4f2 f2_2/4e2 e2d2 {e}d8  | \
w:  Yal *  nız  *  *  *  *  dî  |  dem  *  *  *  de *  ğil  *  *  *  *  gön  | 
dcde c2B2 B2A2 A8 g2^3/4fg a3g  | 
w:  lüm  *  *  *  *  *  de  *  her_ an   | 
^3/4f2g2 f3d e2{=f}ed d6ab ag^3/4fg a4  | \
w:  ağ *  *  *  lı *  *  *  yor   SAZ  | 
g8 a4 a2c'2 b2a2 {b}a8  | 
w:  Yal *  nız  *  *  *  *  dî  | 
c'2_7/8b2 a2g2 g2^3/4f2 f2_2/4e2 e2d2 {e}d8  | \
w:  dem  *  *  *  de *  ğil  *  *  *  *  gön  | 
dcde c2B2 B2A2 A8 g2^3/4fg a3g  | 
w:  lüm  *  *  *  *  *  de  *  her_ an   | 
^3/4f2g2 f3d e2{=f}ed d6ag gffe f4  | \
w:  ağ *  *  *  lı *  *  *  yor   SAZ  | 
f8 f2e2 f3e ^2/4f2g2 a2{_b}ag =fed2  | 
w:  Çağ lı *  yor  *  *  *  sel  | 
a2g2 f2e2 e2d2 d3c B2d2 c2d2 c2BA  | \
w:  ler  *  *  *  gi *  bi  *  *  *  eş  | 
G2A2 B2c2 d2e2 d2{f}ed c2B2 c2d2 (3e2f2g2  | 
w:  ki  *  *  *  dü  *  çeş *  *  *  *  *  mim   | 
f2ed c3B _3/4B2BA A6ag gffe f4  | \
w:  çağ *  *  *  *  lı *  *  yor   SAZ  | 
f8 f2e2 f3e ^2/4f2g2 a2{_b}ag =fed2  | 
w:  Çağ lı *  yor  *  *  *  sel  | 
a2g2 f2e2 e2d2 d3c B2d2 c2d2 c2BA  | \
w:  ler  *  *  *  gi *  bi  *  *  *  eş  | 
G2A2 B2c2 d2e2 d2{f}ed c2B2 c2d2 (3e2f2g2  | 
w:  ki  *  *  *  dü  *  çeş *  *  *  *  *  mim   | 
f2ed c3B _3/4B2BA A6|
w:  çağ *  *  *  *  lı *  *  yor    | 


